src/img/logo.svg

<svg xmlns="http://www.w3.org/2000/svg" fill="none" viewBox="0 0 811 249">
  <path fill="#00A0FF" d="M178.419 208.2 21.5156 148.011l.1264-42.9 157.255-59.2701-.121 41.2498L37.0547 138.156l.0681-23.099L178.54 166.95l-.121 41.25Zm95.147 34.599.553-187.4396-73.92-.2162.128-43.5598 201.299.5887-.128 43.5599-73.92-.2162-.552 187.4392-53.46-.156Zm230.42 4.634c-18.48-.055-36.182-2.526-53.108-7.416-16.925-5.109-30.546-11.639-40.863-19.589l18.269-40.207c9.879 7.069 21.522 12.933 34.928 17.592 13.627 4.44 27.371 6.68 41.231 6.721 10.56.031 19.033-.935 25.418-2.896 6.607-2.181 11.456-5.137 14.547-8.867 3.091-3.731 4.643-8.017 4.657-12.857.019-6.16-2.387-11.007-7.217-14.541-4.829-3.754-11.2-6.743-19.113-8.966-7.913-2.443-16.707-4.669-26.381-6.677-9.453-2.228-19.015-4.896-28.686-8.004-9.451-3.108-18.13-7.093-26.035-11.956-7.906-4.863-14.377-11.262-19.414-19.197-4.816-7.934-7.206-18.0614-7.17-30.3813.039-13.1999 3.594-25.1796 10.666-35.939 7.292-10.9787 18.098-19.6371 32.417-25.9753 14.539-6.5575 32.699-9.80437 54.478-9.74068 14.52.04247 28.815 1.84428 42.885 5.40548 14.07 3.3411 26.485 8.4375 37.245 15.289l-16.62 40.5415c-10.762-6.1915-21.528-10.733-32.3-13.6245-10.771-3.1115-21.326-4.6824-31.666-4.7126-10.34-.0303-18.813 1.155-25.421 3.5556-6.607 2.4007-11.346 5.5769-14.218 9.5285-2.871 3.7316-4.314 8.1274-4.329 13.1874-.017 5.94 2.389 10.787 7.218 14.5412 4.829 3.5341 11.201 6.4128 19.114 8.6357 7.914 2.223 16.597 4.449 26.051 6.676 9.673 2.229 19.236 4.787 28.687 7.674 9.672 2.889 18.46 6.764 26.366 11.628 7.906 4.863 14.267 11.261 19.083 19.195 5.037 7.935 7.538 17.953 7.502 30.052-.038 12.98-3.703 24.85-10.995 35.608-7.292 10.759-18.207 19.417-32.747 25.975-14.319 6.558-32.479 9.805-54.479 9.741Zm127.722-37.907.122-41.25 141.721-51.066-.068 23.1-141.418-51.8936.122-41.2498L789.09 107.356l-.127 42.9-157.255 59.27Z"/>
</svg>

<svg width="811" height="249" viewBox="0 0 811 249" fill="none" xmlns="http://www.w3.org/2000/svg">
<path d="M178.419 208.2L21.5156 148.011L21.642 105.111L178.897 45.8409L178.776 87.0907L37.0547 138.156L37.1228 115.057L178.54 166.95L178.419 208.2ZM273.566 242.799L274.119 55.3594L200.199 55.1432L200.327 11.5834L401.626 12.1721L401.498 55.732L327.578 55.5158L327.026 242.955L273.566 242.799ZM503.986 247.433C485.506 247.378 467.804 244.907 450.878 240.017C433.953 234.908 420.332 228.378 410.015 220.428L428.284 180.221C438.163 187.29 449.806 193.154 463.212 197.813C476.839 202.253 490.583 204.493 504.443 204.534C515.003 204.565 523.476 203.599 529.861 201.638C536.468 199.457 541.317 196.501 544.408 192.771C547.499 189.04 549.051 184.754 549.065 179.914C549.084 173.754 546.678 168.907 541.848 165.373C537.019 161.619 530.648 158.63 522.735 156.407C514.822 153.964 506.028 151.738 496.354 149.73C486.901 147.502 477.339 144.834 467.668 141.726C458.217 138.618 449.538 134.633 441.633 129.77C433.727 124.907 427.256 118.508 422.219 110.573C417.403 102.639 415.013 92.5116 415.049 80.1917C415.088 66.9918 418.643 55.0121 425.715 44.2527C433.007 33.274 443.813 24.6156 458.132 18.2774C472.671 11.7199 490.831 8.47303 512.61 8.53672C527.13 8.57919 541.425 10.381 555.495 13.9422C569.565 17.2833 581.98 22.3797 592.74 29.2312L576.12 69.7727C565.358 63.5812 554.592 59.0397 543.82 56.1482C533.049 53.0367 522.494 51.4658 512.154 51.4356C501.814 51.4053 493.341 52.5906 486.733 54.9912C480.126 57.3919 475.387 60.5681 472.515 64.5197C469.644 68.2513 468.201 72.6471 468.186 77.7071C468.169 83.6471 470.575 88.4941 475.404 92.2483C480.233 95.7824 486.605 98.6611 494.518 100.884C502.432 103.107 511.115 105.333 520.569 107.56C530.242 109.789 539.805 112.347 549.256 115.234C558.928 118.123 567.716 121.998 575.622 126.862C583.528 131.725 589.889 138.123 594.705 146.057C599.742 153.992 602.243 164.01 602.207 176.109C602.169 189.089 598.504 200.959 591.212 211.717C583.92 222.476 573.005 231.134 558.465 237.692C544.146 244.25 525.986 247.497 503.986 247.433ZM631.708 209.526L631.83 168.276L773.551 117.21L773.483 140.31L632.065 88.4164L632.187 47.1666L789.09 107.356L788.963 150.256L631.708 209.526Z" fill="#00A0FF"/>
</svg>
